X:1
T:Fulminat'
T:Fulminat'
T:Gio.Girolamo Kapsperger
C:Gio.Girolamo Kapsperger
%%score [ 1 2 ] { ( 3 4 ) | 5 }
L:1/8
Q:1/4=120
M:4/4
K:F
V:1 treble nm="Soprano 1" snm="S 1"
V:2 treble nm="Soprano 2" snm="S 2"
V:3 treble nm="BC" snm="BC"
V:4 treble 
V:5 bass 
V:1
 z2 dA B3 d |: c3 B A2 A2 | B2 c2 dc AB | cA BA G4 | Adef _e3 f/e/ | d4 c2 _e>f | %6
w: Ful- mi- nat' ac-|ce- si lam- pi|sour' il cor _ fiam- *|mel- * l'ar- * den-|ti, ful- mi- nat' oc- chi lu-|cen- ti fe- ri-|
w: Deh ver- sa- te'a|mil- le'a mil- le|da quel ci- * glio _|sde- * gno- * set-|to, oc- chi cru- di'en- tro'al mio|pet- to, so- a-|
w: Oc- chi bel- li'e|dis- pie- ta- ti,|af- fi- na- * te'i _|vo- * stri _ dar-|di, fian di sde- gno sem- pre'ar-|ma- ti, lu- mi'al-|
 d>c B c/B/ A B/A/ G/A/B/F/ | G/A/B/c/ d/e/f/B/ c4 |1 B2 dA B3 d :|2 B2 AB c2 Bc |: dDEF G3 A/E/ | %11
w: si che l'al- * * * * * * * * *|* * * * * * * m'a- vam-|pi, ful- mi- nat' ac-|pi, che da vo- stra fie-|rez- za pro- vo tan- ta dol-|
w: vis- si- me fa- * * * * * * * *|* * * * * * * * vil-|le, deh ver- sa- te'a|le, che per lu- ce sde-|gno- sa cre- sce fiam- m'a- mo-|
w: tr'i vo- stri sguar- * * * * * * * *||di, oc- chi bel- li'e|di, lun- gi stia la pie-|ta- de re- gn'in voi fe- ri-|
 ^F4 F2 AA | Bc/B/ A>G F>G E2 |1 D2 AB c2 Bc :|2 D2 de fBcd || B3 c/B/ A4 | G8 :| %17
w: cez- za ch'io vi-|bra- mo cru- de- li'e non vez- zo-|si, chi da vo- stra fie|si oc- chi, bel- l'oc- chi fe-|ri'oc- chi sdeg- no-|si|
w: ro- sa su' vi-|bra- te li stra- l'in- vit- ti'ar- cie-|ri,- che per lu- ce sde-|ri, oc- chi cru- di'oc- chi bel-|l'oc- chi se- ve-|re.|
w: ta- te non sa-|ra' ch'io non v'an- ni'e non v'on- no-|re, lun- gi stia la pie-|re, se da vo- stra fie- rez-|za'ha vi- ta'il co-|re.|
V:2
 z2 D^F G3 D |: E3 E F2 F2 | G2 A2 BA FG | AF GF F2 E2 | FBcd c3 d/c/ | c2 =B2 c2 c>d | %6
w: Ful- mi- nat' ac-|ce- si lam- pi|sour' il cor _ fiam- *|mel- * l'ar- * den- *|ti, ful- mi- nat' oc- chi lu-|cen- * ti fe- ri-|
w: Deh ver- sa- te'a|mil- le'a mil- le|da quel ci- * glio _|sde- * gno- * set- *|to, oc- chi cru- dien- tro'al mio|pet- * to, so- a-|
w: Oc- chi bel- li'e|dis- pie- ta- ti,|af- fi- na- * te'i _|vo- * stri _ dar- *|di, fian di sde- gno sem- pte'ar-|ma- * ti, lu- m'al-|
 B>A G A/G/ F G/F/ _E/F/G/D/ | _E/F/G/A/ B/c/d/B/ B2 A2 |1 B2 D^F G3 D :|2 B2 FG A2 GA |: %10
w: si che l'al- * * * * * * * * *|* * * * * * * m'a- vam- *|pi, ful- mi- nat' ac-|pi, che da vo- stra fie-|
w: vis- si- me fa- * * * * * * * *|* * * * * * * * vil- *|le, deh ver- sa- te'a|le, che per lu- ce sde-|
w: tr'i vo- stri sguar- * * * * * * * *||di, oc- chi bel- li'e|di, lun- gi stia la pie-|
 BFGA c3 c/B/ | A4 A2 ^FF | GA/G/ F>E D>E ^C2 |1 D2 FG A2 GA :|2 D2 Bc dGAB || G3 A/G/ G2 ^F2 | %16
w: rez- za pro- vo tan- ta dol-|cez- za ch'io vi-|bra- mo cru- de- li'e non vez- zo-|si, chi da vo- stra fie-|si, oc- chi, bel- l'oc- chi fe-|ri'oc- chi sde- gno- *|
w: gno- sa cre- sce fiam- m'a- mo-|ro- sa su' vi-|bra- te li stra- l'in- vit- ti'ar- cie-|ri, che per lu- ce sde-|ri, oc- chi cru- di'oc- chi bel-|l'oc- chi se- ve- *|
w: ta- de re- gn'in voi fe- ri-|ta- te non se-|ra' ch'io non v'an- ni'e non v'on- no-|re, lun- gi stia la pie-|re, se da vo- stra fie- rez-|za'ha vi- ta'il co- *|
 G8 :| %17
w: si.|
w: re.|
w: re.|
V:3
 [Ad]4 [Bd]4 |: [EGc]4 [FAc]4 | [GB]2 [Ac]2 [Fd]2 [Ac]2 | A2 B2 c4 | [FAc]4 [Gc_e]4 | c2 =B2 c4 | %6
 [FBf]2 [GB_e]2 [Ac]2 [DB]2 | c2 d2 f4 |1 [Bd]2 d2 B3 [Bd] :|2 [DF]2 [FA]2 [Ac]4 |: %10
 [FBd]4 [Gc_e]4 | [^FAd]6 [FA]2 | [DGB]2 [FA]2 [Ad]2 [E^c]2 |1 [^FAd]2 [Ac]2 [FAc]4 :|2 %14
 [^FAd]2 [FBd]6 || B2 c2 [Ad]4 | =B8 :| %17
V:4
 D3 ^F G4 |: x8 | x8 | F2 D2 F2 E2 | x8 | D4 G4 | x8 | G2 A2 B2 A2 |1 F2 A^F G3 D :|2 x8 |: x8 | %11
 x8 | x8 |1 x8 :|2 x8 || G6 ^F2 | [DG]8 :| %17
V:5
 D,4 G,,4 |: C,4 F,,4 | _E,D, C,2 B,,2 F,2 | D,2 B,,2 C,4 | F,,4 C,4 | G,,4 C,4 | %6
 D,2 _E,2 F,2 G,2 | _E,2 D,2 F,4 |1 B,,2 D,2 G,,4 :|2 B,,2 F,2 F,4 |: B,,4 _E,2 C,2 | D,6 D,2 | %12
 G,,2 D,3 G,, A,,2 |1 D,2 F,2 F,4 :|2 D,2 B,,6 || _E,2 C,2 D,4 | G,,8 :| %17

